dist/svgs/core-ui-icons/brand/cib-coderwall.svg

<svg xmlns="http://www.w3.org/2000/svg" width="32" height="32" viewBox="0 0 32 32">
  <path d="M28.473 24.943c1.943 0 3.527 1.584 3.527 3.531 0 1.943-1.584 3.527-3.527 3.527-1.947 0-3.531-1.584-3.531-3.527 0-1.947 1.584-3.531 3.531-3.531zM16 12.473c1.948 0 3.527 1.579 3.527 3.527s-1.579 3.527-3.527 3.527c-1.948 0-3.527-1.579-3.527-3.527s1.579-3.527 3.527-3.527zM28.473 12.473c1.943 0 3.527 1.579 3.527 3.527s-1.584 3.527-3.527 3.527c-1.947 0-3.531-1.579-3.531-3.527s1.584-3.527 3.531-3.527zM16 0c1.948 0 3.527 1.579 3.527 3.527 0 1.947-1.579 3.531-3.527 3.531s-3.527-1.584-3.527-3.531c0-1.943 1.579-3.527 3.527-3.527zM3.527 0c1.947 0 3.531 1.579 3.531 3.527 0 1.947-1.584 3.531-3.531 3.531-1.943 0-3.527-1.584-3.527-3.531 0-1.943 1.584-3.527 3.527-3.527zM28.473 0c1.943 0 3.527 1.579 3.527 3.527 0 1.947-1.584 3.531-3.527 3.531-1.947 0-3.531-1.584-3.531-3.531 0-1.943 1.584-3.527 3.531-3.527z"/>
</svg>

<svg xmlns="http://www.w3.org/2000/svg" viewBox="0 0 32 32"><path d="M28.473 24.943A3.534 3.534 0 0132 28.474a3.533 3.533 0 01-3.527 3.527 3.534 3.534 0 01-3.531-3.527 3.535 3.535 0 013.531-3.531zM16 12.473a3.527 3.527 0 110 7.054 3.527 3.527 0 010-7.054zm12.473 0A3.53 3.53 0 0132 16a3.53 3.53 0 01-7.058 0 3.53 3.53 0 013.531-3.527zM16 0a3.527 3.527 0 013.527 3.527c0 1.947-1.579 3.531-3.527 3.531s-3.527-1.584-3.527-3.531A3.53 3.53 0 0116 0zM3.527 0a3.53 3.53 0 013.531 3.527 3.535 3.535 0 01-3.531 3.531A3.534 3.534 0 010 3.527 3.533 3.533 0 013.527 0zm24.946 0A3.53 3.53 0 0132 3.527a3.534 3.534 0 01-3.527 3.531 3.535 3.535 0 01-3.531-3.531A3.534 3.534 0 0128.473 0z"/></svg>
